X:6375
T:a Trip to Galloway
A:North-West
M:4/4
O:England
R:Reel
Z:Richard Robinson 
%%TUNEURL: http://www.leeds.ac.uk/music/Info/RRTuneBk/gettune/00000505.html
%%ID:00000505
K:A
f|\
eAcA GABd| cAeA fAaf| eAcA GABd| cAeA (3AAA A:|
E|\
CEAc BEcE| BEec BGFE| CEAc BEcE| afec (3AAA A:|
